data/playwrite-ie.svg

<svg width="95.704" height="26.446" viewBox="0 0 95.704 26.446" xmlns="http://www.w3.org/2000/svg"><path transform="translate(0 19.67) scale(.014 -.014)" d="m494 372q-16 0-21.5 11.5t-1.5 28.5q5 15 14.5 26t26.5 11q63 1 125 13t116.5 35.5 96.5 58.5 66 82 24 106q0 43-19 75t-54 53.5-84.5 32-111.5 10.5q-79 0-149.5-16t-129.5-46-105-73q-15-15-30.5-8t-24.5 21q-8 11-7 24t14 24q37 37 84 65.5t102.5 48.5 118.5 30.5 132 10.5q91 0 158-18.5t111-52 65.5-79 21.5-101.5q0-75-29.5-133.5t-81.5-102.5-120.5-73-146.5-45-160-19zm-363-389q-37 0-69 15t-54 39.5-32 52.5q-7 18-2.5 29.5t19.5 18.5q17 8 28.5 4t22.5-21q13-18 28-30t32-17.5 36-5.5q39 0 65.5 30t51.5 110l188 587q5 14 17.5 20.5t34.5 6.5q23 0 33.5-7t4.5-23l-185-575q-25-77-54.5-129.5t-69-78.5-95.5-26z"/><path transform="translate(12.726 19.67) scale(.014 -.014)" d="m-135-17q-19 0-25 11.5t-2.5 26 16 26 30.5 11.5q34 0 75 19.5t86 53.5 90.5 80 90 100.5 85 113 74.5 118 59 116.5 39.5 108 14.5 91q0 15 13.5 22.5t31 7.5 30.5-7.5 13-22.5q0-43-16-97.5t-45-116.5-69-127-87-130-99-124.5-105-110.5-106-88.5-102.5-59-91.5-21.5zm315 0q-44 0-67 15.5t-30.5 42-3 59.5 15.5 68l220 681q26 80 65.5 115.5t95.5 35.5q35 0 59.5-17.5t37.5-49 13-75.5q0-19-13-28t-30.5-9-31 9-13.5 28-4.5 31.5-12.5 19-20 6.5q-10 0-21-7.5t-21-23.5-19-44l-231-721q-4-11-6-25.5t3-25 23-10.5q15 0 27.5 7.5t22 18.5 15.5 20q5 8 16 12t28-7q17-10 16.5-21t-5.5-22q-10-18-28.5-37.5t-43.5-32.5-57-13z"/><path transform="translate(18.242 19.67) scale(.014 -.014)" d="m190-17q-46 0-78.5 20t-50 58-17.5 90q0 44 12 94t36.5 98.5 62.5 88.5 90 63.5 119 23.5q35 0 67-11t59-29l1 4q7 20 16.5 26t28.5 6q32 0 40-9.5t2-29.5l-117-357q-3-11-5.5-25.5t2.5-25 23-10.5q15 0 27.5 7.5t22 18.5 15.5 20q6 8 17 12t27-7q17-10 17-21t-6-22q-10-18-28-37.5t-43-32.5-57-13q-28 0-47.5 6.5t-31.5 18.5-18 28-6 35q0 3 0 5.5t0 4.5q-32-40-65-61.5t-62.5-29-52.5-7.5zm-56 177q0-32 9.5-53.5t28.5-32.5 47-11q33 0 64.5 17.5t61.5 50.5 56 78l68 205q-26 15-49.5 20.5t-49.5 5.5q-53 0-92.5-19t-67-50.5-44.5-69-24.5-74.5-7.5-67z"/><path transform="translate(26.95 19.67) scale(.014 -.014)" d="m391-25q19 10 38 19.5t37.5 18 35.5 15.5 32 12 23.5-2.5 10.5-21.5-2-27-16-19q-20-8-41-17.5t-43-19.5-43-21-42-21zm-277-475q-40 0-70.5 16t-47 43.5-16.5 62.5q0 45 20 84.5t55.5 75 85 68 107.5 63.5q23 11 46 22.5t46 22.5l36 110q-21-20-43-36t-45-27-46.5-16.5-46.5-5.5q-56 0-90 24.5t-42.5 69 10.5 103.5l98 303q7 20 16.5 26t28.5 6q32 0 40-9.5t2-29.5l-97-296q-13-42-11-68.5t21-38.5 55-12q24 0 50 10t51.5 29 49.5 45 43 59l89 279q7 20 16.5 26t28.5 6q31 0 39.5-9.5t1.5-29.5l-231-709q-24-73-49.5-124t-56-82.5-66-46-78.5-14.5zm13 77q23 0 43 11t38.5 34 36.5 59.5 34 87.5l30 93q-12-6-23.5-12t-23.5-12q-44-25-80-50t-61-49.5-38.5-50.5-13.5-54q0-19 7-32t20.5-19 30.5-6z"/><path transform="translate(35.91 19.67) scale(.014 -.014)" d="m190-19q-49 0-78 18t-41 47.5-11 64.5 12 69l99 303q7 20 16.5 26t28.5 6q31 0 39.5-9.5t1.5-29.5l-96-296q-8-25-10.5-53t10.5-47.5 51-19.5q18 0 38 6t40.5 20 39 36.5 33.5 55.5l99 305q7 20 16.5 26t28.5 6q32 0 40-9t2-28l-75-233q-11-34-21.5-67t-12-59.5 13-42 52.5-15.5q39 0 71.5 19t57.5 51.5 42 71.5 26 80 9 77q0 20-1.5 38t-4 34.5-6.5 30.5q-4 19 0 31t15.5 18.5 28.5 6.5 27-11.5 16-37.5q5-18 8-36.5t4.5-38 1.5-40.5q0-42-12.5-92t-37.5-99.5-61.5-91-85-66.5-108.5-25q-44 0-73 11.5t-44 31.5-21 46q-20-30-45.5-50t-56.5-29.5-66-9.5z"/><path transform="translate(47.936 19.67) scale(.014 -.014)" d="m-137-17q-19 0-25 11.5t-2 26 16.5 26 31.5 11.5q33 0 67.5 24.5t69 73 68.5 120 67 165.5l58-25q-43-122-83.5-205t-81.5-133.5-86.5-72.5-99.5-22zm555 0q-38 0-61 11.5t-33 32-9 47 10 56.5q8 26 21.5 57t28.5 64.5 29 66.5 22 63q8 29-1 38.5t-25 9.5q-25 0-58-10t-67.5-19.5-64.5-9.5q-23 0-38.5 14t-23 36-7.5 46q0 25 8 48.5t23.5 38.5 38.5 15q26 0 36.5-14t10.5-33q0-17-6.5-37t-16.5-35q20 0 52.5 11t70.5 22 73 11q29 0 51.5-13t31.5-44-5-85q-8-28-21.5-60.5t-29.5-67-30.5-68.5-24.5-67q-7-25-1.5-37.5t24.5-12.5q15 0 27.5 7.5t22 18.5 15.5 20q6 8 17 12t27-7q17-10 17-21t-6-22q-10-18-28-37.5t-43-32.5-57-13z"/><path transform="translate(55.888 19.67) scale(.014 -.014)" d="m150-17q-67 0-91 44.5t1 122.5l108 333q6 20 15.5 26t29.5 6q31 0 39.5-9.5t1.5-29.5l-114-352q-10-32-5-49t25-17q15 0 28 7.5t22.5 18.5 15.5 20q6 8 17 12t27-7q17-10 17-21t-6-22q-10-18-29-37.5t-44.5-32.5-57.5-13zm125 686q-20 0-34.5 13t-14.5 38q0 27 18 51t55 24q20 0 34.5-12.5t14.5-38.5q0-27-17.5-51t-55.5-24z"/><path transform="translate(60.088 19.67) scale(.014 -.014)" d="m171-17q-58 0-80.5 27.5t-19.5 71.5 19 96l78 242h-79q-11 0-15 10t1 30q6 20 15.5 30t20.5 10h83l64 198q6 20 15.5 26t29.5 6q31 0 39.5-9.5t1.5-29.5l-61-191h126q11 0 15-9.5t-1-30.5q-6-19-16-29.5t-21-10.5h-128l-94-290q-11-35-5-53.5t27-18.5q33 0 56 21t36 37q6 8 16.5 12t26.5-7q17-10 17.5-20.5t-5.5-21.5q-13-21-34.5-43.5t-52.5-37.5-75-15z"/><path transform="translate(65.52 19.67) scale(.014 -.014)" d="m238-19q-59 0-101 25.5t-64.5 69.5-22.5 102q0 54 20 113.5t59.5 111.5 99.5 84 141 32q42 0 75-13t52-38 19-63-18.5-71-53-59.5-84.5-45.5-114-29.5-140-10.5l23 70q56 0 102.5 7.5t83 20.5 62 29.5 38.5 34.5 13 35q0 26-15 39.5t-53 13.5q-57 0-98.5-26t-68.5-66.5-40-84.5-13-81q0-38 14.5-65t39-41 54.5-14q28 0 50 8.5t41.5 23.5 39.5 32q14 12 26.5 10.5t23.5-12.5q14-13 16-27t-11-26q-32-30-63.5-50t-64-29.5-68.5-9.5z"/><path transform="translate(77.084 19.67) scale(.014 -.014)" d="m220-19q-41 0-78.5 13.5t-67.5 38-49 60.5q-7 14-2 26t21 23q15 9 25.5 6.5t23.5-14.5q28-32 60-50t72-18q38 0 66 16t50 53 41 97l210 648q-13-7-31-11.5t-42-4.5q-18 0-37 4t-36.5 9-33.5 9-30 4q-15 0-27-4.5t-20.5-16-15.5-30.5q-6-20-15.5-27.5t-30.5-7.5q-27 0-34 10.5t-4 25.5q8 40 27.5 70.5t50.5 47 74 16.5q24 0 45-4t40.5-9.5 37.5-9.5 36-4q32 0 51 11t35 23q8 7 16.5 11t22.5 4q23 0 33.5-7t5.5-23l-243-746q-26-84-61-137t-80.5-77.5-105.5-24.5z"/><path transform="translate(85.022 19.67) scale(.014 -.014)" d="m349-19q-84 0-144 27.5t-92.5 77.5-32.5 117q0 55 21 106.5t59 94.5 89 73 112 42q-32 9-58 34t-41.5 61-15.5 78q0 53 17 100t48 84.5 74.5 64.5 97 41 113.5 14q54 0 99.5-13t83.5-37.5 65-61.5q13-16 9.5-28.5t-16.5-23.5q-14-13-26.5-10.5t-31.5 17.5q-25 22-56 38t-68 24-79 8q-55 0-99-17t-75.5-47.5-48-69.5-16.5-81q0-39 16.5-70.5t51-50.5 90.5-19h135q16 0 19-8.5t-3-31.5q-7-21-16-30.5t-24-9.5h-129q-62 0-117.5-20.5t-97-57.5-65-84-23.5-98q0-48 23.5-80t68-49 105.5-17q47 0 93.5 15t92 44 88.5 73q17 18 29 17.5t27-15.5q17-16 14.5-28.5t-20.5-30.5q-59-60-117.5-95.5t-116-51-112.5-15.5z"/></svg>

<?xml version="1.0" encoding="utf-8" ?>
<svg baseProfile="tiny" height="100%" version="1.2" width="100%" xmlns="http://www.w3.org/2000/svg" xmlns:ev="http://www.w3.org/2001/xml-events" xmlns:xlink="http://www.w3.org/1999/xlink"><defs /><g><path d="M494 372Q478 372 472.5 383.5Q467 395 471 412Q476 427 485.5 438.0Q495 449 512 449Q575 450 637.0 462.0Q699 474 753.5 497.5Q808 521 850.0 556.0Q892 591 916.0 638.0Q940 685 940 744Q940 787 921.0 819.0Q902 851 867.0 872.5Q832 894 782.5 904.5Q733 915 671 915Q592 915 521.5 899.0Q451 883 392.0 853.0Q333 823 287 780Q272 765 256.5 772.0Q241 779 232 793Q224 804 225.0 817.0Q226 830 239 841Q276 878 323.0 906.5Q370 935 425.5 955.0Q481 975 544.0 985.5Q607 996 676 996Q767 996 834.0 977.5Q901 959 945.0 925.5Q989 892 1010.5 846.5Q1032 801 1032 745Q1032 670 1002.5 611.5Q973 553 921.0 509.0Q869 465 800.5 436.0Q732 407 654.0 391.0Q576 375 494 372ZM131 -17Q94 -17 62.0 -2.0Q30 13 8.0 37.5Q-14 62 -24 90Q-31 108 -26.5 119.5Q-22 131 -7 138Q10 146 21.5 142.0Q33 138 44 121Q57 103 72.0 91.0Q87 79 104.0 73.5Q121 68 140 68Q179 68 205.5 98.0Q232 128 257 208L445 795Q450 809 462.5 815.5Q475 822 497 822Q520 822 530.5 815.0Q541 808 535 792L350 217Q325 140 295.5 87.5Q266 35 226.5 9.0Q187 -17 131 -17Z" transform="translate(0.0, 72) scale(0.072, -0.072)" /><path d="M-135 -17Q-154 -17 -160.0 -5.5Q-166 6 -162.5 20.5Q-159 35 -146.5 46.5Q-134 58 -116 58Q-82 58 -41.0 77.5Q0 97 45.0 131.0Q90 165 135.5 211.0Q181 257 225.5 311.5Q270 366 310.5 424.5Q351 483 385.0 542.5Q419 602 444.0 659.0Q469 716 483.5 767.0Q498 818 498 858Q498 873 511.5 880.5Q525 888 542.5 888.0Q560 888 573.0 880.5Q586 873 586 858Q586 815 570.0 760.5Q554 706 525.0 644.0Q496 582 456.0 517.0Q416 452 369.0 387.0Q322 322 270.0 262.5Q218 203 165.0 152.0Q112 101 59.0 63.5Q6 26 -43.5 4.5Q-93 -17 -135 -17ZM180 -17Q136 -17 113.0 -1.5Q90 14 82.5 40.5Q75 67 79.5 100.0Q84 133 95 168L315 849Q341 929 380.5 964.5Q420 1000 476 1000Q511 1000 535.5 982.5Q560 965 573.0 933.5Q586 902 586 858Q586 839 573.0 830.0Q560 821 542.5 821.0Q525 821 511.5 830.0Q498 839 498 858Q498 877 493.5 889.5Q489 902 481.0 908.5Q473 915 461 915Q451 915 440.0 907.5Q429 900 419.0 884.0Q409 868 400 840L169 119Q165 108 163.0 93.5Q161 79 166.0 68.5Q171 58 189 58Q204 58 216.5 65.5Q229 73 238.5 84.0Q248 95 254 104Q259 112 270.0 116.0Q281 120 298 109Q315 99 314.5 88.0Q314 77 309 66Q299 48 280.5 28.5Q262 9 237.0 -4.0Q212 -17 180 -17Z" transform="translate(65.448, 72) scale(0.072, -0.072)" /><path d="M190 -17Q144 -17 111.5 3.0Q79 23 61.5 61.0Q44 99 44 151Q44 195 56.0 245.0Q68 295 92.5 343.5Q117 392 155.0 432.0Q193 472 245.0 495.5Q297 519 364 519Q399 519 431.0 508.0Q463 497 490 479L491 483Q498 503 507.5 509.0Q517 515 536 515Q568 515 576.0 505.5Q584 496 578 476L461 119Q458 108 455.5 93.5Q453 79 458.0 68.5Q463 58 481 58Q496 58 508.5 65.5Q521 73 530.5 84.0Q540 95 546 104Q552 112 563.0 116.0Q574 120 590 109Q607 99 607.0 88.0Q607 77 601 66Q591 48 573.0 28.5Q555 9 530.0 -4.0Q505 -17 473 -17Q445 -17 425.5 -10.5Q406 -4 394.0 8.0Q382 20 376.0 36.0Q370 52 370 71Q370 74 370.0 76.5Q370 79 370 81Q338 41 305.0 19.5Q272 -2 242.5 -9.5Q213 -17 190 -17ZM134 160Q134 128 143.5 106.5Q153 85 172.0 74.0Q191 63 219 63Q252 63 283.5 80.5Q315 98 345.0 131.0Q375 164 401 209L469 414Q443 429 419.5 434.5Q396 440 370 440Q317 440 277.5 421.0Q238 402 210.5 370.5Q183 339 166.0 301.5Q149 264 141.5 227.0Q134 190 134 160Z" transform="translate(93.81599999999999, 72) scale(0.072, -0.072)" /><path d="M391 -25Q410 -15 429.0 -5.5Q448 4 466.5 12.5Q485 21 502.0 28.0Q519 35 534 40Q549 45 557.5 37.5Q566 30 568.0 16.0Q570 2 566.0 -11.0Q562 -24 550 -30Q530 -38 509.0 -47.5Q488 -57 466.0 -67.0Q444 -77 423.0 -88.0Q402 -99 381 -109ZM114 -500Q74 -500 43.5 -484.0Q13 -468 -3.5 -440.5Q-20 -413 -20 -378Q-20 -333 0.0 -293.5Q20 -254 55.5 -218.5Q91 -183 140.5 -150.5Q190 -118 248 -87Q271 -76 294.0 -64.5Q317 -53 340 -42L376 68Q355 48 333.0 32.0Q311 16 288.0 5.0Q265 -6 241.5 -11.5Q218 -17 195 -17Q139 -17 105.0 7.5Q71 32 62.5 76.5Q54 121 73 180L171 483Q178 503 187.5 509.0Q197 515 216 515Q248 515 256.0 505.5Q264 496 258 476L161 180Q148 138 150.0 111.5Q152 85 171.0 73.0Q190 61 226 61Q250 61 276.0 71.0Q302 81 327.5 100.0Q353 119 377.0 145.0Q401 171 420 204L509 483Q516 503 525.5 509.0Q535 515 554 515Q585 515 593.5 505.5Q602 496 595 476L364 -233Q340 -306 314.5 -357.0Q289 -408 258.5 -439.5Q228 -471 192.5 -485.5Q157 -500 114 -500ZM127 -423Q150 -423 170.0 -412.0Q190 -401 208.5 -378.0Q227 -355 245.0 -318.5Q263 -282 279 -231L309 -138Q297 -144 285.5 -150.0Q274 -156 262 -162Q218 -187 182.0 -212.0Q146 -237 121.0 -261.5Q96 -286 82.5 -312.0Q69 -338 69 -366Q69 -385 76.0 -398.0Q83 -411 96.5 -417.0Q110 -423 127 -423Z" transform="translate(138.6, 72) scale(0.072, -0.072)" /><path d="M190 -19Q141 -19 112.0 -1.0Q83 17 71.0 46.5Q59 76 60.0 111.0Q61 146 72 180L171 483Q178 503 187.5 509.0Q197 515 216 515Q247 515 255.5 505.5Q264 496 257 476L161 180Q153 155 150.5 127.0Q148 99 161.0 79.5Q174 60 212 60Q230 60 250.0 66.0Q270 72 290.5 86.0Q311 100 329.5 122.5Q348 145 363 178L462 483Q469 503 478.5 509.0Q488 515 507 515Q539 515 547.0 506.0Q555 497 549 478L474 245Q463 211 452.5 178.0Q442 145 440.5 118.5Q439 92 453.5 76.5Q468 61 506 61Q545 61 577.5 80.0Q610 99 635.0 131.5Q660 164 677.0 203.0Q694 242 703.0 283.0Q712 324 712 360Q712 380 710.5 398.0Q709 416 706.5 432.5Q704 449 700 463Q696 482 700.0 494.0Q704 506 715.5 512.5Q727 519 744 519Q761 519 771.0 507.5Q781 496 787 470Q792 452 795.0 433.5Q798 415 799.5 395.5Q801 376 801 355Q801 313 788.5 263.0Q776 213 751.0 163.5Q726 114 689.5 72.5Q653 31 604.5 6.0Q556 -19 496 -19Q452 -19 423.0 -7.5Q394 4 379.0 24.0Q364 44 358 70Q338 40 312.5 20.0Q287 0 256.0 -9.5Q225 -19 190 -19Z" transform="translate(184.68, 72) scale(0.072, -0.072)" /><path d="M-137 -17Q-156 -17 -162.0 -5.5Q-168 6 -164.0 20.5Q-160 35 -147.5 46.5Q-135 58 -116 58Q-83 58 -48.5 82.5Q-14 107 20.5 155.5Q55 204 89.0 275.5Q123 347 156 441L214 416Q171 294 130.5 211.0Q90 128 49.0 77.5Q8 27 -37.5 5.0Q-83 -17 -137 -17ZM418 -17Q380 -17 357.0 -5.5Q334 6 324.0 26.5Q314 47 315.0 73.5Q316 100 325 130Q333 156 346.5 187.0Q360 218 375.0 251.5Q390 285 404.0 318.0Q418 351 426 381Q434 410 425.0 419.5Q416 429 400 429Q375 429 342.0 419.0Q309 409 274.5 399.5Q240 390 210 390Q187 390 171.5 404.0Q156 418 148.5 440.0Q141 462 141 486Q141 511 149.0 534.5Q157 558 172.5 573.0Q188 588 211 588Q237 588 247.5 574.0Q258 560 258 541Q258 524 251.5 504.0Q245 484 235 469Q255 469 287.5 480.0Q320 491 358.0 502.0Q396 513 431 513Q460 513 482.5 500.0Q505 487 514.0 456.0Q523 425 509 371Q501 343 487.5 310.5Q474 278 458.0 243.5Q442 209 427.5 175.0Q413 141 403 108Q396 83 401.5 70.5Q407 58 426 58Q441 58 453.5 65.5Q466 73 475.5 84.0Q485 95 491 104Q497 112 508.0 116.0Q519 120 535 109Q552 99 552.0 88.0Q552 77 546 66Q536 48 518.0 28.5Q500 9 475.0 -4.0Q450 -17 418 -17Z" transform="translate(246.528, 72) scale(0.072, -0.072)" /><path d="M150 -17Q83 -17 59.0 27.5Q35 72 60 150L168 483Q174 503 183.5 509.0Q193 515 213 515Q244 515 252.5 505.5Q261 496 254 476L140 124Q130 92 135.0 75.0Q140 58 160 58Q175 58 188.0 65.5Q201 73 210.5 84.0Q220 95 226 104Q232 112 243.0 116.0Q254 120 270 109Q287 99 287.0 88.0Q287 77 281 66Q271 48 252.0 28.5Q233 9 207.5 -4.0Q182 -17 150 -17ZM275 669Q255 669 240.5 682.0Q226 695 226 720Q226 747 244.0 771.0Q262 795 299 795Q319 795 333.5 782.5Q348 770 348 744Q348 717 330.5 693.0Q313 669 275 669Z" transform="translate(287.424, 72) scale(0.072, -0.072)" /><path d="M171 -17Q113 -17 90.5 10.5Q68 38 71.0 82.0Q74 126 90 178L168 420H89Q78 420 74.0 430.0Q70 440 75 460Q81 480 90.5 490.0Q100 500 111 500H194L258 698Q264 718 273.5 724.0Q283 730 303 730Q334 730 342.5 720.5Q351 711 344 691L283 500H409Q420 500 424.0 490.5Q428 481 423 460Q417 441 407.0 430.5Q397 420 386 420H258L164 130Q153 95 159.0 76.5Q165 58 186 58Q219 58 242.0 79.0Q265 100 278 116Q284 124 294.5 128.0Q305 132 321 121Q338 111 338.5 100.5Q339 90 333 79Q320 58 298.5 35.5Q277 13 246.0 -2.0Q215 -17 171 -17Z" transform="translate(309.024, 72) scale(0.072, -0.072)" /><path d="M238 -19Q179 -19 137.0 6.5Q95 32 72.5 76.0Q50 120 50 178Q50 232 70.0 291.5Q90 351 129.5 403.0Q169 455 229.0 487.0Q289 519 370 519Q412 519 445.0 506.0Q478 493 497.0 468.0Q516 443 516 405Q516 367 497.5 334.0Q479 301 444.5 274.5Q410 248 360.0 229.0Q310 210 246.0 199.5Q182 189 106 189L129 259Q185 259 231.5 266.5Q278 274 314.5 287.0Q351 300 376.5 316.5Q402 333 415.0 351.0Q428 369 428 386Q428 412 413.0 425.5Q398 439 360 439Q303 439 261.5 413.0Q220 387 193.0 346.5Q166 306 153.0 262.0Q140 218 140 181Q140 143 154.5 116.0Q169 89 193.5 75.0Q218 61 248 61Q276 61 298.0 69.5Q320 78 339.5 93.0Q359 108 379 125Q393 137 405.5 135.5Q418 134 429 123Q443 110 445.0 96.0Q447 82 434 70Q402 40 370.5 20.0Q339 0 306.5 -9.5Q274 -19 238 -19Z" transform="translate(336.96, 72) scale(0.072, -0.072)" /><path d="M220 -19Q179 -19 141.5 -5.5Q104 8 74.0 32.5Q44 57 25 93Q18 107 23.0 119.0Q28 131 44 142Q59 151 69.5 148.5Q80 146 93 134Q121 102 153.0 84.0Q185 66 225 66Q263 66 291.0 82.0Q319 98 341.0 135.0Q363 172 382 232L592 880Q579 873 561.0 868.5Q543 864 519 864Q501 864 482.0 868.0Q463 872 445.5 877.0Q428 882 412.0 886.0Q396 890 382 890Q367 890 355.0 885.5Q343 881 334.5 869.5Q326 858 319 839Q313 819 303.5 811.5Q294 804 273 804Q246 804 239.0 814.5Q232 825 235 840Q243 880 262.5 910.5Q282 941 313.0 957.5Q344 974 387 974Q411 974 432.0 970.0Q453 966 472.5 960.5Q492 955 510.0 951.0Q528 947 546 947Q578 947 597.0 958.0Q616 969 632 981Q640 988 648.5 992.0Q657 996 671 996Q694 996 704.5 989.0Q715 982 710 966L467 220Q441 136 406.0 83.0Q371 30 325.5 5.5Q280 -19 220 -19Z" transform="translate(396.432, 72) scale(0.072, -0.072)" /><path d="M349 -19Q265 -19 205.0 8.5Q145 36 112.5 86.0Q80 136 80 203Q80 258 101.0 309.5Q122 361 160.0 404.0Q198 447 249.0 477.0Q300 507 361 519Q329 528 303.0 553.0Q277 578 261.5 614.0Q246 650 246 692Q246 745 263.0 792.0Q280 839 311.0 876.5Q342 914 385.5 941.0Q429 968 482.5 982.0Q536 996 596 996Q650 996 695.5 983.0Q741 970 779.0 945.5Q817 921 844 884Q857 868 853.5 855.5Q850 843 837 832Q823 819 810.5 821.5Q798 824 779 839Q754 861 723.0 877.0Q692 893 655.0 901.0Q618 909 576 909Q521 909 477.0 892.0Q433 875 401.5 844.5Q370 814 353.5 775.0Q337 736 337 694Q337 655 353.5 623.5Q370 592 404.5 573.0Q439 554 495 554H630Q646 554 649.0 545.5Q652 537 646 514Q639 493 630.0 483.5Q621 474 606 474H477Q415 474 359.5 453.5Q304 433 262.5 396.0Q221 359 197.5 312.0Q174 265 174 214Q174 166 197.5 134.0Q221 102 265.5 85.0Q310 68 371 68Q418 68 464.5 83.0Q511 98 556.5 127.0Q602 156 645 200Q662 218 674.0 217.5Q686 217 701 202Q718 186 715.5 173.5Q713 161 695 143Q636 83 577.5 47.5Q519 12 461.5 -3.5Q404 -19 349 -19Z" transform="translate(437.25600000000003, 72) scale(0.072, -0.072)" /></g></svg>
